images/start-bg-white2.svg

<svg width="1290" height="613" viewBox="0 0 1290 613" fill="none" xmlns="http://www.w3.org/2000/svg">
<g clip-path="url(#clip0_8343_119384)">
<path style="transform: translateY(40px);" d="M269.006 52.0121C270.666 52.0121 272.012 50.6663 272.012 49.0061C272.012 47.3459 270.666 46 269.006 46C267.346 46 266 47.3459 266 49.0061C266 50.6663 267.346 52.0121 269.006 52.0121Z" fill="#2e2379"/>
<path style="transform: translateX(40px);" d="M1126.01 257.012C1127.67 257.012 1129.02 255.666 1129.02 254.006C1129.02 252.346 1127.67 251 1126.01 251C1124.35 251 1123 252.346 1123 254.006C1123 255.666 1124.35 257.012 1126.01 257.012Z" fill="#2e2379"/>
<path style="transform: translateY(-40px);" d="M1247.01 46.0121C1248.67 46.0121 1250.02 44.6663 1250.02 43.0061C1250.02 41.3459 1248.67 40 1247.01 40C1245.35 40 1244 41.3459 1244 43.0061C1244 44.6663 1245.35 46.0121 1247.01 46.0121Z" fill="#2e2379"/>
<path style="transform: translateX(-40px);" d="M1150.01 96.0121C1151.67 96.0121 1153.02 94.6663 1153.02 93.0061C1153.02 91.3459 1151.67 90 1150.01 90C1148.35 90 1147 91.3459 1147 93.0061C1147 94.6663 1148.35 96.0121 1150.01 96.0121Z" fill="#2e2379"/>
<path style="transform: translateY(44px);" d="M749.006 89.0121C750.666 89.0121 752.012 87.6663 752.012 86.0061C752.012 84.3459 750.666 83 749.006 83C747.346 83 746 84.3459 746 86.0061C746 87.6663 747.346 89.0121 749.006 89.0121Z" fill="#2e2379"/>
<path style="transform: translateX(48px);" d="M11.0061 181.012C12.6663 181.012 14.0121 179.666 14.0121 178.006C14.0121 176.346 12.6663 175 11.0061 175C9.34586 175 8 176.346 8 178.006C8 179.666 9.34586 181.012 11.0061 181.012Z" fill="#2e2379"/>
<path style="transform: translateY(48px);" d="M82.0061 68.0121C83.6663 68.0121 85.0121 66.6663 85.0121 65.0061C85.0121 63.3459 83.6663 62 82.0061 62C80.3459 62 79 63.3459 79 65.0061C79 66.6663 80.3459 68.0121 82.0061 68.0121Z" fill="#2e2379"/>
<path style="transform: translateX(-46px);" d="M142.006 219.012C143.666 219.012 145.012 217.666 145.012 216.006C145.012 214.346 143.666 213 142.006 213C140.346 213 139 214.346 139 216.006C139 217.666 140.346 219.012 142.006 219.012Z" fill="#2e2379"/>
<path style="transform: translateY(48px);" d="M246.509 28.0182C248.999 28.0182 251.018 25.9994 251.018 23.5091C251.018 21.0188 248.999 19 246.509 19C244.019 19 242 21.0188 242 23.5091C242 25.9994 244.019 28.0182 246.509 28.0182Z" fill="#2e2379"/>
<path style="transform: translateX(44px);" d="M1191.51 111.018C1194 111.018 1196.02 108.999 1196.02 106.509C1196.02 104.019 1194 102 1191.51 102C1189.02 102 1187 104.019 1187 106.509C1187 108.999 1189.02 111.018 1191.51 111.018Z" fill="#2e2379"/>
<path style="transform: translateY(30px);" d="M31.5149 80.4045C33.0557 80.7897 34.2588 81.9928 34.644 83.5336L36.0905 89.3194C36.1976 89.7479 36.5826 90.0485 37.0243 90.0485C37.4659 90.0485 37.8509 89.7479 37.958 89.3194L39.4045 83.5336C39.7897 81.9928 40.9928 80.7897 42.5336 80.4045L48.3194 78.958C48.7479 78.8509 49.0485 78.4659 49.0485 78.0243C49.0485 77.5826 48.7479 77.1976 48.3194 77.0905L42.5336 75.644C40.9928 75.2588 39.7897 74.0557 39.4045 72.5149L37.958 66.7291C37.8509 66.3006 37.4659 66 37.0243 66C36.5826 66 36.1976 66.3006 36.0905 66.7291L34.644 72.5149C34.2588 74.0557 33.0557 75.2588 31.5149 75.644L25.7291 77.0905C25.3006 77.1976 25 77.5826 25 78.0242C25 78.4659 25.3006 78.8509 25.7291 78.958L31.5149 80.4045Z" stroke="#2e2379" stroke-width="2"/>
<path style="transform: translateX(42px);" d="M931.319 14.4045C932.86 14.7897 934.063 15.9928 934.448 17.5336L935.894 23.3194C936.002 23.7479 936.387 24.0485 936.828 24.0485C937.27 24.0485 937.655 23.7479 937.762 23.3194L939.209 17.5336C939.594 15.9928 940.797 14.7897 942.338 14.4045L948.123 12.958C948.552 12.8509 948.853 12.4659 948.853 12.0243C948.853 11.5826 948.552 11.1976 948.123 11.0905L942.338 9.644C940.797 9.2588 939.594 8.05574 939.209 6.51494L937.762 0.729077C937.655 0.300594 937.27 0 936.828 0C936.387 0 936.002 0.300593 935.894 0.729077L934.448 6.51494C934.063 8.05574 932.86 9.2588 931.319 9.644L925.533 11.0905C925.105 11.1976 924.804 11.5826 924.804 12.0242C924.804 12.4659 925.105 12.8509 925.533 12.958L931.319 14.4045Z" fill="#2e2379"/>
<path style="transform: translateY(49px);" d="M1270.51 207.404C1272.06 207.79 1273.26 208.993 1273.64 210.534L1275.09 216.319C1275.2 216.748 1275.58 217.049 1276.02 217.049C1276.47 217.049 1276.85 216.748 1276.96 216.319L1278.4 210.534C1278.79 208.993 1279.99 207.79 1281.53 207.405L1287.32 205.958C1287.75 205.851 1288.05 205.466 1288.05 205.024C1288.05 204.583 1287.75 204.198 1287.32 204.09L1281.53 202.644C1279.99 202.259 1278.79 201.056 1278.4 199.515L1276.96 193.729C1276.85 193.301 1276.47 193 1276.02 193C1275.58 193 1275.2 193.301 1275.09 193.729L1273.64 199.515C1273.26 201.056 1272.06 202.259 1270.51 202.644L1264.73 204.09C1264.3 204.198 1264 204.583 1264 205.024C1264 205.466 1264.3 205.851 1264.73 205.958L1270.51 207.404Z" stroke="#2e2379" stroke-width="2"/>
<path style="transform: translateX(46px);" d="M375.404 33.4045C376.945 33.7897 378.148 34.9928 378.533 36.5336L379.979 42.3194C380.087 42.7479 380.472 43.0485 380.913 43.0485C381.355 43.0485 381.74 42.7479 381.847 42.3194L383.294 36.5336C383.679 34.9928 384.882 33.7897 386.423 33.4045L392.208 31.958C392.637 31.8509 392.938 31.4659 392.938 31.0243C392.938 30.5826 392.637 30.1976 392.208 30.0905L386.423 28.644C384.882 28.2588 383.679 27.0557 383.294 25.5149L381.847 19.7291C381.74 19.3006 381.355 19 380.913 19C380.472 19 380.087 19.3006 379.979 19.7291L378.533 25.5149C378.148 27.0557 376.945 28.2588 375.404 28.644L369.618 30.0905C369.19 30.1976 368.889 30.5826 368.889 31.0242C368.889 31.4659 369.19 31.8509 369.618 31.958L375.404 33.4045Z" fill="#2e2379"/>
<path style="transform: translateY(2px);" d="M7.51493 601.404C9.05574 601.79 10.2588 602.993 10.644 604.534L12.0905 610.319C12.1976 610.748 12.5826 611.049 13.0243 611.049C13.4659 611.049 13.8509 610.748 13.958 610.319L15.4045 604.534C15.7897 602.993 16.9928 601.79 18.5336 601.405L24.3194 599.958C24.7479 599.851 25.0485 599.466 25.0485 599.024C25.0485 598.583 24.7479 598.198 24.3194 598.09L18.5336 596.644C16.9928 596.259 15.7897 595.056 15.4045 593.515L13.958 587.729C13.8509 587.301 13.4659 587 13.0243 587C12.5826 587 12.1976 587.301 12.0905 587.729L10.644 593.515C10.2588 595.056 9.05574 596.259 7.51494 596.644L1.72908 598.09C1.30059 598.198 1 598.583 1 599.024C1 599.466 1.30059 599.851 1.72908 599.958L7.51493 601.404Z" stroke="#2e2379" stroke-width="2"/>
<path style="transform: translateY(26px);" d="M1085.26 160.202C1086.03 160.395 1086.63 160.996 1086.82 161.767L1087.55 164.66C1087.6 164.874 1087.79 165.024 1088.01 165.024C1088.23 165.024 1088.43 164.874 1088.48 164.66L1089.2 161.767C1089.39 160.996 1090 160.395 1090.77 160.202L1093.66 159.479C1093.87 159.425 1094.02 159.233 1094.02 159.012C1094.02 158.791 1093.87 158.599 1093.66 158.545L1090.77 157.822C1090 157.629 1089.39 157.028 1089.2 156.257L1088.48 153.365C1088.43 153.15 1088.23 153 1088.01 153C1087.79 153 1087.6 153.15 1087.55 153.365L1086.82 156.257C1086.63 157.028 1086.03 157.629 1085.26 157.822L1082.36 158.545C1082.15 158.599 1082 158.791 1082 159.012C1082 159.233 1082.15 159.425 1082.36 159.479L1085.26 160.202Z" stroke="#2e2379" stroke-width="2"/>
</g>
<defs>
<clipPath id="clip0_8343_119384">
<rect width="1290" height="613" fill="#2e2379"/>
</clipPath>
</defs>
</svg>

<svg xmlns="http://www.w3.org/2000/svg" width="1290" height="613" fill="none"><g clip-path="url(#a)"><path fill="#2e2379" d="M269.006 52.012a3.006 3.006 0 1 0 0-6.012 3.006 3.006 0 0 0 0 6.012Z" style="transform:translateY(40px)"/><path fill="#2e2379" d="M1126.01 257.012a3.01 3.01 0 0 0 3.01-3.006 3.01 3.01 0 0 0-6.02 0 3.01 3.01 0 0 0 3.01 3.006Z" style="transform:translateX(40px)"/><path fill="#2e2379" d="M1247.01 46.012a3.01 3.01 0 0 0 3.01-3.006 3.01 3.01 0 0 0-6.02 0 3.01 3.01 0 0 0 3.01 3.006Z" style="transform:translateY(-40px)"/><path fill="#2e2379" d="M1150.01 96.012a3.01 3.01 0 0 0 3.01-3.006 3.01 3.01 0 0 0-6.02 0 3.01 3.01 0 0 0 3.01 3.006Z" style="transform:translateX(-40px)"/><path fill="#2e2379" d="M749.006 89.012a3.006 3.006 0 1 0 0-6.012 3.006 3.006 0 0 0 0 6.012Z" style="transform:translateY(44px)"/><path fill="#2e2379" d="M11.006 181.012a3.006 3.006 0 1 0 0-6.012 3.006 3.006 0 0 0 0 6.012Z" style="transform:translateX(48px)"/><path fill="#2e2379" d="M82.006 68.012a3.006 3.006 0 1 0 0-6.012 3.006 3.006 0 0 0 0 6.012Z" style="transform:translateY(48px)"/><path fill="#2e2379" d="M142.006 219.012a3.006 3.006 0 1 0 0-6.012 3.006 3.006 0 0 0 0 6.012Z" style="transform:translateX(-46px)"/><path fill="#2e2379" d="M246.509 28.018a4.51 4.51 0 1 0 0-9.018 4.51 4.51 0 0 0 0 9.018Z" style="transform:translateY(48px)"/><path fill="#2e2379" d="M1191.51 111.018a4.51 4.51 0 1 0 0-9.02 4.51 4.51 0 0 0 0 9.02Z" style="transform:translateX(44px)"/><path stroke="#2e2379" stroke-width="2" d="M31.515 80.404a4.3 4.3 0 0 1 3.129 3.13l1.447 5.785a.963.963 0 0 0 1.867 0l1.447-5.785a4.3 4.3 0 0 1 3.129-3.13l5.785-1.446a.962.962 0 0 0 0-1.867l-5.785-1.447a4.3 4.3 0 0 1-3.13-3.13l-1.446-5.785a.962.962 0 0 0-1.867 0l-1.447 5.786a4.3 4.3 0 0 1-3.13 3.129l-5.785 1.447a.962.962 0 0 0 0 1.867l5.786 1.447Z" style="transform:translateY(30px)"/><path fill="#2e2379" d="M931.319 14.405a4.3 4.3 0 0 1 3.129 3.129l1.446 5.785a.964.964 0 0 0 1.868 0l1.447-5.785a4.3 4.3 0 0 1 3.129-3.13l5.785-1.446a.963.963 0 0 0 0-1.867l-5.785-1.447a4.3 4.3 0 0 1-3.129-3.13L937.762.73a.962.962 0 0 0-1.868 0l-1.446 5.786a4.3 4.3 0 0 1-3.129 3.129l-5.786 1.447a.963.963 0 0 0 0 1.867l5.786 1.447Z" style="transform:translateX(42px)"/><path stroke="#2e2379" stroke-width="2" d="M1270.51 207.404a4.281 4.281 0 0 1 3.13 3.13l1.45 5.785a.962.962 0 0 0 1.87 0l1.44-5.785a4.31 4.31 0 0 1 3.13-3.129l5.79-1.447a.962.962 0 0 0 0-1.868l-5.79-1.446a4.31 4.31 0 0 1-3.13-3.129l-1.44-5.786a.965.965 0 0 0-1.87 0l-1.45 5.786a4.278 4.278 0 0 1-3.13 3.129l-5.78 1.446a.963.963 0 0 0 0 1.868l5.78 1.446Z" style="transform:translateY(49px)"/><path fill="#2e2379" d="M375.404 33.404a4.3 4.3 0 0 1 3.129 3.13l1.446 5.785a.964.964 0 0 0 1.868 0l1.447-5.785a4.3 4.3 0 0 1 3.129-3.13l5.785-1.446a.963.963 0 0 0 0-1.867l-5.785-1.447a4.3 4.3 0 0 1-3.129-3.13l-1.447-5.785a.962.962 0 0 0-1.868 0l-1.446 5.786a4.3 4.3 0 0 1-3.129 3.129l-5.786 1.447a.963.963 0 0 0 0 1.867l5.786 1.447Z" style="transform:translateX(46px)"/><path stroke="#2e2379" stroke-width="2" d="M7.515 601.404a4.303 4.303 0 0 1 3.129 3.13l1.447 5.785a.963.963 0 0 0 1.867 0l1.447-5.785a4.3 4.3 0 0 1 3.129-3.129l5.785-1.447a.962.962 0 0 0 0-1.868l-5.785-1.446a4.3 4.3 0 0 1-3.13-3.129l-1.446-5.786a.963.963 0 0 0-1.867 0l-1.447 5.786a4.3 4.3 0 0 1-3.13 3.129L1.73 598.09a.964.964 0 0 0 0 1.868l5.786 1.446Z" style="transform:translateY(2px)"/><path stroke="#2e2379" stroke-width="2" d="M1085.26 160.202c.77.193 1.37.794 1.56 1.565l.73 2.893a.47.47 0 0 0 .46.364c.22 0 .42-.15.47-.364l.72-2.893c.19-.771.8-1.372 1.57-1.565l2.89-.723a.482.482 0 0 0 0-.934l-2.89-.723a2.154 2.154 0 0 1-1.57-1.565l-.72-2.892a.482.482 0 0 0-.47-.365.47.47 0 0 0-.46.365l-.73 2.892a2.141 2.141 0 0 1-1.56 1.565l-2.9.723a.482.482 0 0 0 0 .934l2.9.723Z" style="transform:translateY(26px)"/></g><defs><clipPath id="a"><path fill="#2e2379" d="M0 0h1290v613H0z"/></clipPath></defs></svg>
